X: 2597
T:Trip To Sligo,A. HSJJ.045
M:4/4
L:1/8
Q:200
S:HSJ Jackson,Wyresdale,Lancs.1823
R:Reel
O:England
A:Lancashire
N:Page missing from Photocopy,possibly one or two tunes,so i have
N:numbered tunes accordingly,in case they turn up. .
H:1823
Z:Chris Partington.
K:G
G2BG dGBG|A/A/A Bde2g2|G2BG dGBG|cABGE2D2:|!
|:g>age dBGB|(gage) agab|g>age dBGB|cABGE2D2|!
g>age dBGB|gage agab|gbeb dgdB|cABGE2D2:|]
